packages/foundations/assets/icons/functional/images/audio & video/play_64.svg

<svg width="64" height="64" viewBox="0 0 64 64" fill="none" xmlns="http://www.w3.org/2000/svg">
<g clip-path="url(#clip0_2202_449)">
<path fill-rule="evenodd" clip-rule="evenodd" d="M20.081 12C20.9844 12.0076 21.8669 12.2726 22.625 12.764L46.394 28.389C46.9709 28.7973 47.4408 29.3387 47.7639 29.9673C48.087 30.596 48.2538 31.2932 48.25 32C48.2538 32.7068 48.087 33.404 47.7639 34.0327C47.4408 34.6613 46.9709 35.2027 46.394 35.611L22.625 51.236C21.8669 51.7274 20.9844 51.9924 20.081 52C17.675 52 15.75 49.986 15.75 47.556V16.444C15.75 14.014 17.675 12 20.081 12ZM20.081 15C19.41 15 18.75 15.5 18.75 16.444V47.556C18.75 48.364 19.366 49 20.081 49C20.329 49 20.578 48.98 21.001 48.714C28.99 43.6696 36.8853 38.4784 44.683 33.143C45.153 32.826 45.25 32.428 45.25 32C45.25 31.572 45.152 31.173 44.683 30.856L21.003 15.288C20.76 15.132 20.551 15 20.081 15Z" fill="#1A1C1F"/>
</g>
<defs>
<clipPath id="clip0_2202_449">
<rect width="64" height="64" fill="white"/>
</clipPath>
</defs>
</svg>

<svg xmlns="http://www.w3.org/2000/svg" width="64" height="64" fill="none"><g clip-path="url(#a)"><path fill="#1A1C1F" fill-rule="evenodd" d="M20.081 12a4.75 4.75 0 0 1 2.544.764l23.769 15.625A4.4 4.4 0 0 1 48.25 32a4.4 4.4 0 0 1-1.856 3.611L22.625 51.236a4.75 4.75 0 0 1-2.544.764c-2.406 0-4.331-2.014-4.331-4.444V16.444c0-2.43 1.925-4.444 4.331-4.444m0 3c-.671 0-1.331.5-1.331 1.444v31.112c0 .808.616 1.444 1.331 1.444.248 0 .497-.02.92-.286a769 769 0 0 0 23.682-15.571c.47-.317.567-.715.567-1.143s-.098-.827-.567-1.144l-23.68-15.568c-.243-.156-.452-.288-.922-.288" clip-rule="evenodd"/></g><defs><clipPath id="a"><path fill="#fff" d="M0 0h64v64H0z"/></clipPath></defs></svg>
